X:1
T:Oh, Come Today
T:Hubert Platt Main
T:Oh, Come Today
T:Public Domain
T:Public Domain
C:Hubert Platt Main
Z:Public Domain
%%score ( 1 2 ) ( 3 4 )
L:1/8
M:6/8
K:Ab
V:1 treble 
V:2 treble 
V:3 bass 
V:4 bass 
V:1
 [CE]2 [Ec] [Ec]2 [Fd] | ([Fd][Ec])[CB] [CE]2 C | [DE]3 [DE]2 [DF] | [CE]3 [CA]2 z | %4
w: 1.~Come to Him who|still * is plead- ing,|to re- ceive|Him; While|
w: 2.~While the lamp of|life * is burn- ing,|to the mount-|ain; While|
w: 3.~While the dews of|grace * are fall- ing,|ly and ten-|der, While|
w: 4.~Still we hear that|voice * re- peat- ing,|ye that sor-|row, Time|
 [CE]2 [Ec] [Ec]2 [Fd] | ([Fd][Ec])[CB] [CE]2 [EF] | [EG]2 [Ec] [=DB]2 [DF] | (G2 F) [DE]2 z | %8
w: He yet is in-|ter- * ced- ing, Can|you slight and grieve|Him? * While|
w: for rest your soul|is * yearn- ing, Seek|the pre- cious fount-|ain. * He|
w: His voice a- gain|is * call- ing, All|to Him sur- ren-|der. * On|
w: is brief, the hours|are * fleet- ing, Stay|not til the mor-|row.” * Come|
 [Cc]2 [Ec] [Ac]2 [_Ge] | (ed)[=Fc] (B=F)[_FB] | [EA]2 [=DA] (AB)[=DG] | [CA]3- [CA]2 z || %12
w: love your heart is|lead- * ing, There * is|you. * * * *||
w: longs for your re-|turn- * ing, Sheds * His|you. Come, oh, * come,|oh, *|
w: cross with grief ap-|pal- * ling Once * He|you. * * * *||
w: share the Mas- ter’s|greet- * ing, Lo! * He|you. * * * *||
"^Refrain" [EB]3 (E2 _G) | [Fd]3- [Fd]2 z | [FA]3 (F2 _F) | (E2 E [Ec]2) z | %16
w: ||||
w: come, No *|else *|but He *|save * *|
w: ||||
w: ||||
 [CE]2 [Ec] [Ac]2 [_Ge] | (ed)[=Fc] (B=F)[_FB] | [EA]2 [=DA] (AB)[=DG] | [CA]3- [CA]2 z |] %20
w: ||||
w: * He the Truth,|the * Way. * * *|||
w: ||||
w: ||||
V:2
 x6 | x5 C | x6 | x6 | x6 | x6 | x6 | D3 x3 | x6 | _F2 _F2 x2 | x3 _D2 x | x6 || x3 c3 | x6 | %14
w: |Haste||||||His||joy for|||||
w: |Speed||||||who||blood for|Come,||one||
w: |Soft-||||||the||died for|||||
w: |“O||||||and||waits for|||||
 x3 B3 | c3- x3 | x6 | _F2 _F2 x2 | x3 _D2 x | x6 |] %20
w: ||||||
w: can|you,|||||
w: ||||||
w: ||||||
V:3
 [A,,A,]2 [A,,A,] [A,,A,]2 [A,,A,] | [A,,A,]2 [A,,E,] [A,,A,]2 [A,,E,] | [B,,G,]3 [E,G,]2 [E,G,] | %3
 [A,,A,]3 [A,,E,]2 z | [A,,A,]2 [A,,A,] [A,,A,]2 [A,,A,] | [A,,A,]2 [A,,E,] [A,,A,]2 [_C,=A,] | %6
 [B,,B,]2 [B,,G,] [B,,A,]2 [B,,B,] | B,2 A, [E,G,]2 z | A,2 [A,C] [A,E]2 [A,C] | %9
 [D,A,]2 [D,A,] [D,D]2 [D,B,] | [E,C]2 [E,_C] [E,B,]2 [E,B,] | [A,,A,]3- [A,,A,]2 z || %12
 [E,G,]3 A,3 | ([D,A,]2 [D,A,] [D,A,]2) z | [D,A,]3 (A,2 G,) | ([A,,A,]2 [A,,A,] [A,,A,]2) z | %16
 A,2 [A,C] [A,E]2 [A,C] | [D,A,]2 [D,A,] [D,D]2 [D,B,] | [E,C]2 [E,_C] [E,B,]2 [E,B,] | %19
 [A,,A,]3- [A,,A,]2 z |] %20
V:4
 x6 | x6 | x6 | x6 | x6 | x6 | x6 | E,3 x3 | A,2 x4 | x6 | x6 | x6 || x3 A,3 | x6 | x3 D,3 | x6 | %16
 A,2 x4 | x6 | x6 | x6 |] %20

